app/dist/common/images/xgd.svg

<svg height="18" viewBox="0 0 18 18" width="18" xmlns="http://www.w3.org/2000/svg"><path d="m0 0h18v18h-18z" fill="#f0f3fa"/><path d="m11 13v-9l2 1v6.19zm-.4-6.16v-2.24l-3.96 3.84-1.29-.67-1.35 1.34 6.6 3.89v-2.42l-2.43-1.3zm-4.6 4.21-2-1.05v1.47l1.01.53z" fill="#0062b1"/></svg>

<!-- by TradingView --><svg width="18" height="18" viewBox="0 0 18 18" xmlns="http://www.w3.org/2000/svg"><path fill="#F0F3FA" d="M0 0h18v18H0z"/><path d="M11 13V4l2 1v6.19L11 13ZM10.6 6.84V4.6L6.64 8.44l-1.29-.67L4 9.11 10.6 13v-2.42l-2.43-1.3 2.43-2.44ZM6 11.05 4 10v1.47l1.01.53.99-.95Z" fill="#0062B1"/></svg>
